X: 412
%
T: Miss MacKay
C:
O:Scotland
B:Keith Norman MacDonald : "The Skye collection of the best reels & strathspeys extant" : 1887
Z:Ralph Palmer
R:Reel
N:Time signature in the book is 6/8, but the tune is written in 4/4. See Stool of Repentance (next tune).
M:C
L:1/8
K:A
a | A/2A/2A cA eAcA | Bffe fBBa | A/2A/2A cA eAcA | EFAB cA A :|
a | faea da c2 | Bffe fBBa | faea dacA | EFAB cAAa |
faea daca | dffe fBBg | afbg afed | EFAB cA A |]


